X:9004
T:Inisheer
T:Inis Oirr
R:Waltz, Air
C:Thomas Walsh
O:Ireland
Z:Paul Hardy's Session Tunebook 2015 (see www.paulhardy.net). Creative Commons cc by-nc-sa licenced.
M:3/4
L:1/8
Q:1/4=85
K:G
D2|:"G"B3A Bd|"Bm"B3A Bd|"C"E3B AB|"D"D3B AG|"G"B3A Bd|"Bm"B3A Bd|"C"G3B "D"A/2G/2F|"G"G3E D2:|
"C"e3f ed|"G"B3A Bd|"Em"ef ed "Bm"B/2c/2d|"Em"e3A Bd|"C"e3f ed|"G"B3A Bd|"Em"G3B "D"A/2G/2F|"G"G3A Bd|
"C" e3f ed|"G"B3A Bd|"Em"gf ed "Bm"B/2c/2d|"Em"e3A Bd|"C" e3f ed|"G"B3A Bd|"D"D3B A/2G/2F|"G"G6|]

